X:90
T:Mundesse
M:C|
L:1/8
Q:140
K:G
G2 GG G2A2|B3A G2d2|c3B ABcd|B3A G2G2|A3G A2B2|c3d c2B2|A2G2 G2^F2|G8|:
G3A BABc|d3e d2 ef|g2f2 edef|1 d8:|2d6 f2|:
g2f2 g2e2|d6 ef|g2f2 g2e2|d6 e2|f2g2 f2g2|d6 c2|B2 AA GFGA|1 G6 f2:|2 G6 G2|:
B3c d2B2|e3d c2B2|A2G2 G2F2|1 G6 G2:|2 G8||

